X:56
T:Hag with the Money, The
R:jig
H:See also #353
Z:id:hn-jig-56
M:6/8
K:Dmix
Adc ABA|AGE ~G3|Adc ABA|GEA GED|Adc ABA|AGE ~G3|AGE cde|dcA GED:|
|:AB^c d2e|fed ed^c|AB^c dcd|eag ed^c|AB^c d2e|fed efg|age ^cde|d^cA GED:|
<end>
<start>
